!!!OTL: Go to Sleepy
!!!ARE: United States of America
!!!AGN: Southern Folksong
!!!AMD: Pentatonic
**kern
=1-
*clefG2
*k[b-]
*M4/4
*MM118
{4.f/
8f/
8.a/L
16g/Jk
8.f/L
16g/Jk
=2
2a/
2cc\}
=3
{4.f/
8f/
8a/L
8g/J
4f/
=4
2d/
2f/}
=5
{4f/
4f/
4f/
4c/
=6
8f/L
8f/J
8f/L
8f/J
4f/}
{8c/L
8c/J
=7
2f/
8.a/L
16g/Jk
8f/L
8g/J
=8
2a/
2cc\}
=9
{4.f/
8f/
8.a/L
16g/Jk
8.f/L
16g/Jk
=10
2a/
2cc\}
=11
{4.f/
8f/
8a/L
8g/J
4f/
=12
2d/
2f/}
=13
{4f/
4f/
4f/
8c/L
8c/J
=14
4f/
4f/
2f/}
=15
{4.f/
8f/
(8a/L
8g/J)
8f/L
8g/J
=16
2a/
4cc;\}
{4c/
=17
4f/
8f/L
8f/J
4f/
8c/L
8c/J
=18
8f/L
8f/J
8f/L
8f/J
2f/}
=19
{4.f/
8f/
8.a/L
16g/Jk
8.f/L
16g/Jk
=20
2a/
2cc;\}
==
*-
